(.../pcb-gcode-3_6_0_4/pcb-gcode.ulp)
(Copyright 2005 - 2012 by John Johnson)
(See readme.txt for licensing terms.)
(This file generated from the board:)
(.../Zvonek/hardware/Zvonek/Zvonek.brd)
(Current profile is .../pcb-gcode-3_6_0_4/profiles/generic.pp  )
(This file generated 2020-06-06 18:38)
(Settings from pcb-machine.h)
(  Tool Size)
(0.3500 )
(Z Axis Settings)
(  High     Up        Down     Drill)
(10.0000 	2.5400 	-0.3000 	-1.5000 )
(spindle on time = 1.0000)
(milling depth = -0.3000)
(text depth = -0.1270)
(tool change at 10.0000 10.0000 10.0000 )
(feed rate xy = F254.00 )
(feed rate z  = F100.00 )
(Settings from pcb-defaults.h)
(isolate min = 0.0500)
(isolate max = 0.1000)
(isolate step = 0.1000)
(Generated bottom outlines, bottom drill, )
(Unit of measure: mm)
( Tool|       Size       |  Min Sub |  Max Sub |   Count )
( T01  0.800mm 0.0315in 0.0315in 0.0591in )
(Metric Mode)
G21
(Absolute Coordinates)
G90
M05
G00 Z10.0000 
G00 X10.0000 Y10.0000 
M06 T01  ; 0.8000 
G00 Z2.5400 
M03
G04 P1.000000
G00 Z2.540000
G00 X-31.7500 Y20.3200 
G01 Z-1.5000 F100.00 
G01 Z2.540000
(R2.5400  P1.000000)
(G00 Z2.540000)
G00 X-34.2900 Y8.1280 
G01 Z-1.500000
G01 Z2.540000
(G00 Z2.540000)
G00 X-3.8100 Y3.8900 
G01 Z-1.500000
G01 Z2.540000
(G00 Z2.540000)
G00 X-3.8100 Y8.8900 
G01 Z-1.500000
G01 Z2.540000
(G00 Z2.540000)
G00 X-3.8100 Y13.8900 
G01 Z-1.500000
G01 Z2.540000
(G00 Z2.540000)
G00 X-3.8100 Y19.0500 
G01 Z-1.500000
G01 Z2.540000
(G00 Z2.540000)
G00 X-6.3500 Y19.0500 
G01 Z-1.500000
G01 Z2.540000
(G00 Z2.540000)
G00 X-6.3500 Y20.3200 
G01 Z-1.500000
G01 Z2.540000
(G00 Z2.540000)
G00 X-12.7000 Y6.3500 
G01 Z-1.500000
G01 Z2.540000
(G00 Z2.540000)
G00 X-12.7000 Y8.8900 
G01 Z-1.500000
G01 Z2.540000
(G00 Z2.540000)
G00 X-12.7000 Y11.4300 
G01 Z-1.500000
G01 Z2.540000
(G00 Z2.540000)
G00 X-12.7000 Y16.5100 
G01 Z-1.500000
G01 Z2.540000
(G00 Z2.540000)
G00 X-12.7000 Y24.1300 
G01 Z-1.500000
G01 Z2.540000
(G00 Z2.540000)
G00 X-15.2400 Y24.1300 
G01 Z-1.500000
G01 Z2.540000
(G00 Z2.540000)
G00 X-20.0660 Y16.5100 
G01 Z-1.500000
G01 Z2.540000
(G00 Z2.540000)
G00 X-21.5900 Y3.8900 
G01 Z-1.500000
G01 Z2.540000
(G00 Z2.540000)
G00 X-24.1300 Y8.8900 
G01 Z-1.500000
G01 Z2.540000
(G00 Z2.540000)
G00 X-24.1300 Y10.9220 
G01 Z-1.500000
G01 Z2.540000
(G00 Z2.540000)
G00 X-24.1300 Y16.5100 
G01 Z-1.500000
G01 Z2.540000
(G00 Z2.540000)
G00 X-24.1300 Y19.0500 
G01 Z-1.500000
G01 Z2.540000
(G00 Z2.540000)
G00 X-25.4000 Y16.5100 
G01 Z-1.500000
G01 Z2.540000
(G00 Z2.540000)
G00 X-29.2100 Y8.1280 
G01 Z-1.500000
G01 Z2.540000
T01 
G00 Z10.0000 
M05
M02
