(.../pcb-gcode-3_6_0_4/pcb-gcode.ulp)
(Copyright 2005 - 2012 by John Johnson)
(See readme.txt for licensing terms.)
(This file generated from the board:)
(.../Zvonek/hardware/Zvonek/Zvonek.brd)
(Current profile is .../pcb-gcode-3_6_0_4/profiles/generic.pp  )
(This file generated 2020-06-06 18:37)
(Settings from pcb-machine.h)
(  Tool Size)
(0.3500 )
(Z Axis Settings)
(  High     Up        Down     Drill)
(10.0000 	2.5400 	-0.3000 	-1.5000 )
(spindle on time = 1.0000)
(milling depth = -0.3000)
(text depth = -0.1270)
(tool change at 10.0000 10.0000 10.0000 )
(feed rate xy = F254.00 )
(feed rate z  = F100.00 )
(Settings from pcb-defaults.h)
(isolate min = 0.0500)
(isolate max = 0.1000)
(isolate step = 0.1000)
(Generated bottom outlines, bottom drill, )
(Unit of measure: mm)
(Metric Mode)
G21
(Absolute Coordinates)
G90
G00 X0.0000 Y0.0000 
M03
G04 P1.000000
G00 Z2.5400 
G00 X-20.6875 Y17.2673 
G01 Z-0.3000 F100.00 
G01 X-20.5278 Y17.3740 F254.00 
G01 X-20.3504 Y17.4475 
G01 X-20.1620 Y17.4850 
G01 X-19.9700 Y17.4850 
G01 X-19.7816 Y17.4475 
G01 X-19.6042 Y17.3740 
G01 X-19.4445 Y17.2673 
G01 X-19.3087 Y17.1315 
G01 X-19.2020 Y16.9718 
G01 X-19.1285 Y16.7944 
G01 X-19.0910 Y16.6060 
G01 X-19.0910 Y16.4140 
G01 X-19.1285 Y16.2256 
G01 X-19.2020 Y16.0482 
G01 X-19.3087 Y15.8885 
G01 X-19.4445 Y15.7527 
G01 X-19.6042 Y15.6460 
G01 X-19.7816 Y15.5725 
G01 X-19.9700 Y15.5350 
G01 X-20.1620 Y15.5350 
G01 X-20.3504 Y15.5725 
G01 X-20.5278 Y15.6460 
G01 X-20.6875 Y15.7527 
G01 X-20.7199 Y15.7850 
G01 X-23.4053 Y15.7850 
G01 X-23.7054 Y15.4849 
G01 X-24.1298 Y15.4849 
G01 X-24.2516 Y15.4025 
G01 X-24.3835 Y15.3479 
G01 X-24.5236 Y15.3200 
G01 X-25.2111 Y15.3200 
G01 X-25.6420 Y14.8891 
G01 X-25.6420 Y13.5332 
G01 X-25.6763 Y13.4505 
G01 X-25.7395 Y13.3873 
G01 X-25.8222 Y13.3530 
G01 X-27.5118 Y13.3530 
G01 X-27.5945 Y13.3873 
G01 X-27.6577 Y13.4505 
G01 X-27.6920 Y13.5332 
G01 X-27.6920 Y15.1200 
G01 X-27.7888 Y15.1200 
G01 X-27.8715 Y15.1543 
G01 X-27.9347 Y15.2175 
G01 X-27.9690 Y15.3002 
G01 X-27.9690 Y16.7898 
G01 X-27.9347 Y16.8725 
G01 X-27.8715 Y16.9357 
G01 X-27.7888 Y16.9700 
G01 X-26.6992 Y16.9700 
G01 X-26.6165 Y16.9357 
G01 X-26.5533 Y16.8725 
G01 X-26.5190 Y16.7898 
G01 X-26.5190 Y16.7700 
G01 X-26.4302 Y16.8587 
G01 X-26.4078 Y16.9275 
G01 X-26.3301 Y17.0800 
G01 X-26.2295 Y17.2185 
G01 X-26.1085 Y17.3395 
G01 X-25.9700 Y17.4401 
G01 X-25.8175 Y17.5178 
G01 X-25.6547 Y17.5707 
G01 X-25.4856 Y17.5975 
G01 X-25.3144 Y17.5975 
G01 X-25.1453 Y17.5707 
G01 X-24.9825 Y17.5178 
G01 X-24.9181 Y17.4850 
G01 X-24.6047 Y17.4850 
G01 X-24.5546 Y17.5351 
G01 X-23.7054 Y17.5351 
G01 X-23.4053 Y17.2350 
G01 X-20.7199 Y17.2350 
G01 X-20.6875 Y17.2673 
G00 Z2.5400 
G00 X-35.4040 Y7.6666 
G01 Z-0.3000 F100.00 
G01 X-35.4040 Y8.5894 F254.00 
G01 X-35.2650 Y8.7284 
G01 X-35.2650 Y25.4960 
G01 X-35.2275 Y25.6844 
G01 X-35.1540 Y25.8618 
G01 X-35.0473 Y26.0215 
G01 X-34.9115 Y26.1573 
G01 X-33.6253 Y27.4435 
G01 X-33.4895 Y27.5793 
G01 X-33.3298 Y27.6860 
G01 X-33.1524 Y27.7595 
G01 X-32.9640 Y27.7970 
G01 X-21.6187 Y27.7970 
G01 X-21.6029 Y27.8127 
G01 X-21.5203 Y27.8470 
G01 X-19.6277 Y27.8470 
G01 X-19.5450 Y27.8127 
G01 X-19.5293 Y27.7970 
G01 X-18.8247 Y27.7970 
G01 X-18.8089 Y27.8127 
G01 X-18.7263 Y27.8470 
G01 X-16.8337 Y27.8470 
G01 X-16.7510 Y27.8127 
G01 X-16.7353 Y27.7970 
G01 X-11.2047 Y27.7970 
G01 X-11.1890 Y27.8127 
G01 X-11.1063 Y27.8470 
G01 X-9.2137 Y27.8470 
G01 X-9.1310 Y27.8127 
G01 X-9.1153 Y27.7970 
G01 X-5.1360 Y27.7970 
G01 X-4.9476 Y27.7595 
G01 X-4.7702 Y27.6860 
G01 X-4.6105 Y27.5793 
G01 X-4.4747 Y27.4435 
G01 X-3.0527 Y26.0215 
G01 X-2.9460 Y25.8618 
G01 X-2.8725 Y25.6844 
G01 X-2.8350 Y25.4960 
G01 X-2.8350 Y19.3749 
G01 X-2.8243 Y19.3490 
G01 X-2.7849 Y19.1510 
G01 X-2.7849 Y18.9490 
G01 X-2.8243 Y18.7510 
G01 X-2.8350 Y18.7251 
G01 X-2.8350 Y15.4959 
G01 X-1.9850 Y14.6459 
G01 X-1.9850 Y13.1341 
G01 X-3.0541 Y12.0650 
G01 X-4.5659 Y12.0650 
G01 X-5.4159 Y12.9150 
G01 X-6.5282 Y12.9150 
G01 X-6.5925 Y12.8493 
G01 X-6.6752 Y12.8150 
G01 X-8.5648 Y12.8150 
G01 X-8.6475 Y12.8493 
G01 X-8.6632 Y12.8650 
G01 X-9.0933 Y12.8650 
G01 X-9.1310 Y12.8273 
G01 X-9.2137 Y12.7930 
G01 X-11.1063 Y12.7930 
G01 X-11.1890 Y12.8273 
G01 X-11.2047 Y12.8430 
G01 X-11.7250 Y12.8430 
G01 X-11.7250 Y12.3940 
G01 X-11.6501 Y12.3791 
G01 X-11.4705 Y12.3047 
G01 X-11.3088 Y12.1966 
G01 X-11.1713 Y12.0592 
G01 X-11.0633 Y11.8975 
G01 X-10.9889 Y11.7179 
G01 X-10.9510 Y11.5272 
G01 X-10.9510 Y11.3328 
G01 X-10.9889 Y11.1421 
G01 X-11.0633 Y10.9625 
G01 X-11.1713 Y10.8008 
G01 X-11.3088 Y10.6633 
G01 X-11.4705 Y10.5553 
G01 X-11.6501 Y10.4809 
G01 X-11.8408 Y10.4430 
G01 X-13.5592 Y10.4430 
G01 X-13.6195 Y10.4550 
G01 X-14.8361 Y10.4550 
G01 X-15.3896 Y9.9015 
G01 X-15.3835 Y9.8868 
G01 X-15.3835 Y8.1972 
G01 X-15.4178 Y8.1145 
G01 X-15.4810 Y8.0513 
G01 X-15.5637 Y8.0170 
G01 X-17.4563 Y8.0170 
G01 X-17.5389 Y8.0513 
G01 X-17.6022 Y8.1145 
G01 X-17.6365 Y8.1972 
G01 X-17.6365 Y9.8868 
G01 X-17.6022 Y9.9695 
G01 X-17.5389 Y10.0327 
G01 X-17.4850 Y10.0551 
G01 X-17.4850 Y10.2560 
G01 X-17.4475 Y10.4444 
G01 X-17.3740 Y10.6218 
G01 X-17.2673 Y10.7815 
G01 X-17.1315 Y10.9173 
G01 X-15.9973 Y12.0515 
G01 X-15.8615 Y12.1873 
G01 X-15.7018 Y12.2940 
G01 X-15.5244 Y12.3675 
G01 X-15.3360 Y12.4050 
G01 X-13.6750 Y12.4050 
G01 X-13.6750 Y12.8430 
G01 X-13.7620 Y12.8430 
G01 X-14.6628 Y12.8435 
G01 X-14.7454 Y12.8778 
G01 X-14.8087 Y12.9410 
G01 X-14.8430 Y13.0237 
G01 X-14.8430 Y14.9163 
G01 X-14.8087 Y14.9990 
G01 X-14.7454 Y15.0622 
G01 X-14.6628 Y15.0965 
G01 X-12.9732 Y15.0965 
G01 X-12.8905 Y15.0622 
G01 X-12.8273 Y14.9990 
G01 X-12.7930 Y14.9163 
G01 X-12.7930 Y14.7930 
G01 X-11.2047 Y14.7930 
G01 X-11.1890 Y14.8087 
G01 X-11.1063 Y14.8430 
G01 X-9.2137 Y14.8430 
G01 X-9.1461 Y14.8150 
G01 X-8.6632 Y14.8150 
G01 X-8.6475 Y14.8307 
G01 X-8.5648 Y14.8650 
G01 X-5.4159 Y14.8650 
G01 X-4.7850 Y15.4959 
G01 X-4.7850 Y18.7251 
G01 X-4.7957 Y18.7510 
G01 X-4.8351 Y18.9490 
G01 X-4.8351 Y19.1510 
G01 X-4.7957 Y19.3490 
G01 X-4.7850 Y19.3749 
G01 X-4.7850 Y24.9961 
G01 X-5.6359 Y25.8470 
G01 X-9.1153 Y25.8470 
G01 X-9.1310 Y25.8313 
G01 X-9.2137 Y25.7970 
G01 X-11.1063 Y25.7970 
G01 X-11.1890 Y25.8313 
G01 X-11.2047 Y25.8470 
G01 X-16.7353 Y25.8470 
G01 X-16.7510 Y25.8313 
G01 X-16.8337 Y25.7970 
G01 X-18.7263 Y25.7970 
G01 X-18.8089 Y25.8313 
G01 X-18.8247 Y25.8470 
G01 X-19.5293 Y25.8470 
G01 X-19.5450 Y25.8313 
G01 X-19.6277 Y25.7970 
G01 X-21.5203 Y25.7970 
G01 X-21.6029 Y25.8313 
G01 X-21.6187 Y25.8470 
G01 X-32.4641 Y25.8470 
G01 X-33.3150 Y24.9961 
G01 X-33.3150 Y8.7284 
G01 X-33.1760 Y8.5894 
G01 X-33.1760 Y7.6666 
G01 X-33.8286 Y7.0140 
G01 X-34.7514 Y7.0140 
G01 X-35.4040 Y7.6666 
G00 Z2.5400 
G00 X-28.2637 Y5.4770 
G01 Z-0.3000 F100.00 
G01 X-30.1563 Y5.4770 F254.00 
G01 X-30.2390 Y5.5113 
G01 X-30.3022 Y5.5745 
G01 X-30.3365 Y5.6572 
G01 X-30.3365 Y7.3468 
G01 X-30.3022 Y7.4295 
G01 X-30.2390 Y7.4927 
G01 X-30.1850 Y7.5151 
G01 X-30.1850 Y7.5276 
G01 X-30.3240 Y7.6666 
G01 X-30.3240 Y8.5894 
G01 X-30.1850 Y8.7284 
G01 X-30.1850 Y8.8679 
G01 X-30.2390 Y8.8903 
G01 X-30.3022 Y8.9535 
G01 X-30.3365 Y9.0362 
G01 X-30.3365 Y10.7258 
G01 X-30.3022 Y10.8085 
G01 X-30.2390 Y10.8717 
G01 X-30.1563 Y10.9060 
G01 X-28.2637 Y10.9060 
G01 X-28.1810 Y10.8717 
G01 X-28.1178 Y10.8085 
G01 X-28.0835 Y10.7258 
G01 X-28.0835 Y9.0362 
G01 X-28.1178 Y8.9535 
G01 X-28.1810 Y8.8903 
G01 X-28.2350 Y8.8679 
G01 X-28.2350 Y8.7284 
G01 X-28.0960 Y8.5894 
G01 X-28.0960 Y7.6666 
G01 X-28.2350 Y7.5276 
G01 X-28.2350 Y7.5151 
G01 X-28.1810 Y7.4927 
G01 X-28.1178 Y7.4295 
G01 X-28.0835 Y7.3468 
G01 X-28.0835 Y5.6572 
G01 X-28.1178 Y5.5745 
G01 X-28.1810 Y5.5113 
G01 X-28.2637 Y5.4770 
G00 Z2.5400 
G00 X-6.6752 Y15.6150 
G01 Z-0.3000 F100.00 
G01 X-8.5648 Y15.6150 F254.00 
G01 X-8.6475 Y15.6493 
G01 X-8.7107 Y15.7125 
G01 X-8.7450 Y15.7952 
G01 X-8.7450 Y17.4848 
G01 X-8.7107 Y17.5675 
G01 X-8.6475 Y17.6307 
G01 X-8.5950 Y17.6525 
G01 X-8.5950 Y17.8760 
G01 X-8.5575 Y18.0644 
G01 X-8.4840 Y18.2418 
G01 X-8.3773 Y18.4015 
G01 X-7.3751 Y19.4038 
G01 X-7.3751 Y19.4746 
G01 X-7.3250 Y19.5247 
G01 X-7.3250 Y19.8453 
G01 X-7.3751 Y19.8954 
G01 X-7.3751 Y20.7446 
G01 X-7.2642 Y20.8555 
G01 X-7.2975 Y20.8693 
G01 X-7.3607 Y20.9325 
G01 X-7.3950 Y21.0152 
G01 X-7.3950 Y22.5048 
G01 X-7.3607 Y22.5875 
G01 X-7.2975 Y22.6507 
G01 X-7.2148 Y22.6850 
G01 X-6.1252 Y22.6850 
G01 X-6.0425 Y22.6507 
G01 X-5.9793 Y22.5875 
G01 X-5.9450 Y22.5048 
G01 X-5.9450 Y22.0603 
G01 X-5.7869 Y21.9022 
G01 X-5.7075 Y21.7834 
G01 X-5.6529 Y21.6515 
G01 X-5.6250 Y21.5114 
G01 X-5.6250 Y21.0447 
G01 X-5.3249 Y20.7446 
G01 X-5.3249 Y19.8954 
G01 X-5.3750 Y19.8453 
G01 X-5.3750 Y19.5247 
G01 X-5.3249 Y19.4746 
G01 X-5.3249 Y18.6254 
G01 X-5.9254 Y18.0249 
G01 X-5.9962 Y18.0249 
G01 X-6.5071 Y17.5140 
G01 X-6.4950 Y17.4848 
G01 X-6.4950 Y15.7952 
G01 X-6.5293 Y15.7125 
G01 X-6.5925 Y15.6493 
G01 X-6.6752 Y15.6150 
G00 Z2.5400 
G00 X-9.2137 Y15.6370 
G01 Z-0.3000 F100.00 
G01 X-11.1063 Y15.6370 F254.00 
G01 X-11.1890 Y15.6713 
G01 X-11.2522 Y15.7345 
G01 X-11.2865 Y15.8172 
G01 X-11.2865 Y17.5068 
G01 X-11.2522 Y17.5894 
G01 X-11.1890 Y17.6527 
G01 X-11.1350 Y17.6751 
G01 X-11.1350 Y17.8849 
G01 X-11.1890 Y17.9073 
G01 X-11.2522 Y17.9705 
G01 X-11.2865 Y18.0532 
G01 X-11.2865 Y18.2863 
G01 X-11.3592 Y18.3349 
G01 X-12.6193 Y19.5950 
G01 X-12.8640 Y19.5950 
G01 X-12.8640 Y19.4052 
G01 X-12.8983 Y19.3225 
G01 X-12.9615 Y19.2593 
G01 X-13.0442 Y19.2250 
G01 X-14.1338 Y19.2250 
G01 X-14.2165 Y19.2593 
G01 X-14.2797 Y19.3225 
G01 X-14.3140 Y19.4052 
G01 X-14.3140 Y19.4250 
G01 X-15.0531 Y19.4250 
G01 X-15.0531 Y19.2592 
G01 X-15.0874 Y19.1765 
G01 X-15.1506 Y19.1133 
G01 X-15.2333 Y19.0790 
G01 X-17.0247 Y19.0790 
G01 X-17.1074 Y19.1133 
G01 X-17.1706 Y19.1765 
G01 X-17.2049 Y19.2592 
G01 X-17.2049 Y20.7458 
G01 X-17.1706 Y20.8285 
G01 X-17.1074 Y20.8917 
G01 X-17.0247 Y20.9260 
G01 X-15.2333 Y20.9260 
G01 X-15.1506 Y20.8917 
G01 X-15.1339 Y20.8750 
G01 X-14.3140 Y20.8750 
G01 X-14.3140 Y20.8948 
G01 X-14.2797 Y20.9775 
G01 X-14.2165 Y21.0407 
G01 X-14.1338 Y21.0750 
G01 X-13.0442 Y21.0750 
G01 X-12.9718 Y21.0450 
G01 X-12.2476 Y21.0450 
G01 X-12.1075 Y21.0171 
G01 X-11.9756 Y20.9625 
G01 X-11.8568 Y20.8831 
G01 X-10.8967 Y19.9230 
G01 X-9.2137 Y19.9230 
G01 X-9.1310 Y19.8887 
G01 X-9.0678 Y19.8255 
G01 X-9.0335 Y19.7428 
G01 X-9.0335 Y18.0532 
G01 X-9.0678 Y17.9705 
G01 X-9.1310 Y17.9073 
G01 X-9.1850 Y17.8849 
G01 X-9.1850 Y17.6751 
G01 X-9.1310 Y17.6527 
G01 X-9.0678 Y17.5894 
G01 X-9.0335 Y17.5068 
G01 X-9.0335 Y15.8172 
G01 X-9.0678 Y15.7345 
G01 X-9.1310 Y15.6713 
G01 X-9.2137 Y15.6370 
G00 Z2.5400 
G00 X-18.1037 Y10.0670 
G01 Z-0.3000 F100.00 
G01 X-18.0210 Y10.0327 F254.00 
G01 X-17.9578 Y9.9695 
G01 X-17.9235 Y9.8868 
G01 X-17.9235 Y8.1972 
G01 X-17.9578 Y8.1145 
G01 X-18.0210 Y8.0513 
G01 X-18.1037 Y8.0170 
G01 X-19.9963 Y8.0170 
G01 X-20.0790 Y8.0513 
G01 X-20.1422 Y8.1145 
G01 X-20.1765 Y8.1972 
G01 X-20.1765 Y8.5672 
G01 X-20.1891 Y8.5798 
G01 X-20.7903 Y9.1810 
G01 X-21.2348 Y9.1810 
G01 X-21.3175 Y9.2153 
G01 X-21.3807 Y9.2785 
G01 X-21.4150 Y9.3612 
G01 X-21.4150 Y10.4508 
G01 X-21.3807 Y10.5335 
G01 X-21.3175 Y10.5967 
G01 X-21.2348 Y10.6310 
G01 X-19.7452 Y10.6310 
G01 X-19.6625 Y10.5967 
G01 X-19.5993 Y10.5335 
G01 X-19.5650 Y10.4508 
G01 X-19.5650 Y10.0670 
G01 X-18.1037 Y10.0670 
G00 Z2.5400 
G00 X-25.6410 Y7.4927 
G01 Z-0.3000 F100.00 
G01 X-25.5778 Y7.4295 F254.00 
G01 X-25.5435 Y7.3468 
G01 X-25.5435 Y5.6572 
G01 X-25.5778 Y5.5745 
G01 X-25.6410 Y5.5113 
G01 X-25.7237 Y5.4770 
G01 X-27.6163 Y5.4770 
G01 X-27.6989 Y5.5113 
G01 X-27.7622 Y5.5745 
G01 X-27.7965 Y5.6572 
G01 X-27.7965 Y7.3468 
G01 X-27.7622 Y7.4295 
G01 X-27.6989 Y7.4927 
G01 X-27.6450 Y7.5151 
G01 X-27.6450 Y10.2560 
G01 X-27.6075 Y10.4444 
G01 X-27.5340 Y10.6218 
G01 X-27.4273 Y10.7815 
G01 X-27.2915 Y10.9173 
G01 X-25.3703 Y12.8385 
G01 X-25.2345 Y12.9743 
G01 X-25.0791 Y13.0782 
G01 X-25.0675 Y13.1364 
G01 X-25.0530 Y13.1715 
G01 X-25.0530 Y13.9003 
G01 X-25.0187 Y13.9830 
G01 X-24.9555 Y14.0462 
G01 X-24.8728 Y14.0805 
G01 X-23.1832 Y14.0805 
G01 X-23.1005 Y14.0462 
G01 X-23.0373 Y13.9830 
G01 X-23.0030 Y13.9003 
G01 X-23.0030 Y12.0077 
G01 X-23.0373 Y11.9250 
G01 X-23.1005 Y11.8618 
G01 X-23.1550 Y11.8392 
G01 X-23.1550 Y11.6470 
G01 X-22.6846 Y11.6470 
G01 X-22.5445 Y11.6191 
G01 X-22.4524 Y11.5810 
G01 X-21.9452 Y11.5810 
G01 X-21.8625 Y11.5467 
G01 X-21.7993 Y11.4835 
G01 X-21.7650 Y11.4008 
G01 X-21.7650 Y10.3112 
G01 X-21.7993 Y10.2285 
G01 X-21.8625 Y10.1653 
G01 X-21.9452 Y10.1310 
G01 X-23.4348 Y10.1310 
G01 X-23.5114 Y10.1627 
G01 X-23.6682 Y10.0580 
G01 X-23.8456 Y9.9845 
G01 X-24.0340 Y9.9470 
G01 X-24.2260 Y9.9470 
G01 X-24.4144 Y9.9845 
G01 X-24.5918 Y10.0580 
G01 X-24.7515 Y10.1647 
G01 X-24.8873 Y10.3005 
G01 X-24.9928 Y10.4583 
G01 X-25.6950 Y9.7561 
G01 X-25.6950 Y7.5151 
G01 X-25.6410 Y7.4927 
G00 Z2.5400 
G00 X-9.2137 Y20.7170 
G01 Z-0.3000 F100.00 
G01 X-11.1063 Y20.7170 F254.00 
G01 X-11.1890 Y20.7513 
G01 X-11.2522 Y20.8145 
G01 X-11.2865 Y20.8972 
G01 X-11.2865 Y22.5868 
G01 X-11.2522 Y22.6695 
G01 X-11.1890 Y22.7327 
G01 X-11.1063 Y22.7670 
G01 X-9.2137 Y22.7670 
G01 X-9.1310 Y22.7327 
G01 X-9.0833 Y22.6850 
G01 X-8.0252 Y22.6850 
G01 X-7.9425 Y22.6507 
G01 X-7.8793 Y22.5875 
G01 X-7.8450 Y22.5048 
G01 X-7.8450 Y21.0152 
G01 X-7.8793 Y20.9325 
G01 X-7.9425 Y20.8693 
G01 X-8.0252 Y20.8350 
G01 X-9.0593 Y20.8350 
G01 X-9.0678 Y20.8145 
G01 X-9.1310 Y20.7513 
G01 X-9.2137 Y20.7170 
G00 Z2.5400 
G00 X-11.8408 Y7.9030 
G01 Z-0.3000 F100.00 
G01 X-13.5592 Y7.9030 F254.00 
G01 X-13.7499 Y7.9409 
G01 X-13.9295 Y8.0153 
G01 X-14.0912 Y8.1233 
G01 X-14.2287 Y8.2608 
G01 X-14.3367 Y8.4225 
G01 X-14.4111 Y8.6021 
G01 X-14.4490 Y8.7928 
G01 X-14.4490 Y8.9872 
G01 X-14.4111 Y9.1779 
G01 X-14.3367 Y9.3575 
G01 X-14.2287 Y9.5192 
G01 X-14.0912 Y9.6567 
G01 X-13.9295 Y9.7647 
G01 X-13.7499 Y9.8391 
G01 X-13.5592 Y9.8770 
G01 X-11.8408 Y9.8770 
G01 X-11.7805 Y9.8650 
G01 X-11.4101 Y9.8650 
G01 X-11.3100 Y9.9377 
G01 X-11.1382 Y10.0252 
G01 X-10.9549 Y10.0848 
G01 X-10.7644 Y10.1150 
G01 X-9.2469 Y10.1150 
G01 X-9.1744 Y10.1450 
G01 X-8.9860 Y10.1825 
G01 X-8.7940 Y10.1825 
G01 X-8.6056 Y10.1450 
G01 X-8.5331 Y10.1150 
G01 X-5.1659 Y10.1150 
G01 X-4.5659 Y10.7150 
G01 X-3.0541 Y10.7150 
G01 X-1.9850 Y9.6459 
G01 X-1.9850 Y8.1341 
G01 X-3.0541 Y7.0650 
G01 X-4.5659 Y7.0650 
G01 X-5.1659 Y7.6650 
G01 X-10.7644 Y7.6650 
G01 X-10.9549 Y7.6952 
G01 X-11.1382 Y7.7547 
G01 X-11.3100 Y7.8423 
G01 X-11.4101 Y7.9150 
G01 X-11.7805 Y7.9150 
G01 X-11.8408 Y7.9030 
G00 Z2.5400 
G00 X-11.8408 Y5.3630 
G01 Z-0.3000 F100.00 
G01 X-13.5592 Y5.3630 F254.00 
G01 X-13.6035 Y5.3718 
G01 X-13.6602 Y5.3340 
G01 X-13.8376 Y5.2605 
G01 X-14.0260 Y5.2230 
G01 X-15.4653 Y5.2230 
G01 X-15.4810 Y5.2073 
G01 X-15.5637 Y5.1730 
G01 X-17.4563 Y5.1730 
G01 X-17.5389 Y5.2073 
G01 X-17.6022 Y5.2705 
G01 X-17.6365 Y5.3532 
G01 X-17.6365 Y5.4730 
G01 X-17.9235 Y5.4730 
G01 X-17.9235 Y5.3532 
G01 X-17.9578 Y5.2705 
G01 X-18.0210 Y5.2073 
G01 X-18.1037 Y5.1730 
G01 X-19.9963 Y5.1730 
G01 X-20.0790 Y5.2073 
G01 X-20.1422 Y5.2705 
G01 X-20.1765 Y5.3532 
G01 X-20.1765 Y7.0428 
G01 X-20.1422 Y7.1255 
G01 X-20.0790 Y7.1887 
G01 X-19.9963 Y7.2230 
G01 X-18.1037 Y7.2230 
G01 X-18.0210 Y7.1887 
G01 X-17.9578 Y7.1255 
G01 X-17.9235 Y7.0428 
G01 X-17.9235 Y6.9230 
G01 X-17.6365 Y6.9230 
G01 X-17.6365 Y7.0428 
G01 X-17.6022 Y7.1255 
G01 X-17.5389 Y7.1887 
G01 X-17.4563 Y7.2230 
G01 X-15.5637 Y7.2230 
G01 X-15.4810 Y7.1887 
G01 X-15.4653 Y7.1730 
G01 X-14.4932 Y7.1730 
G01 X-14.4318 Y7.2140 
G01 X-14.2544 Y7.2875 
G01 X-14.0660 Y7.3250 
G01 X-13.6195 Y7.3250 
G01 X-13.5592 Y7.3370 
G01 X-11.8408 Y7.3370 
G01 X-11.6501 Y7.2991 
G01 X-11.4705 Y7.2247 
G01 X-11.3088 Y7.1166 
G01 X-11.1713 Y6.9792 
G01 X-11.0633 Y6.8175 
G01 X-10.9889 Y6.6379 
G01 X-10.9510 Y6.4472 
G01 X-10.9510 Y6.2528 
G01 X-10.9889 Y6.0621 
G01 X-11.0633 Y5.8825 
G01 X-11.1713 Y5.7208 
G01 X-11.3088 Y5.5833 
G01 X-11.4705 Y5.4753 
G01 X-11.6501 Y5.4009 
G01 X-11.8408 Y5.3630 
G00 Z2.5400 
G00 X-22.4857 Y13.6815 
G01 Z-0.3000 F100.00 
G01 X-22.5684 Y13.7158 F254.00 
G01 X-22.6316 Y13.7790 
G01 X-22.6659 Y13.8617 
G01 X-22.6659 Y15.3483 
G01 X-22.6316 Y15.4310 
G01 X-22.5684 Y15.4942 
G01 X-22.4857 Y15.5285 
G01 X-21.9083 Y15.5285 
G01 X-21.8744 Y15.5425 
G01 X-21.6860 Y15.5800 
G01 X-21.4940 Y15.5800 
G01 X-21.3056 Y15.5425 
G01 X-21.2717 Y15.5285 
G01 X-20.6943 Y15.5285 
G01 X-20.6116 Y15.4942 
G01 X-20.5484 Y15.4310 
G01 X-20.5141 Y15.3483 
G01 X-20.5141 Y14.9450 
G01 X-17.6751 Y14.9450 
G01 X-17.6527 Y14.9990 
G01 X-17.6370 Y15.0147 
G01 X-17.6370 Y15.4380 
G01 X-17.5995 Y15.6264 
G01 X-17.5260 Y15.8038 
G01 X-17.4193 Y15.9635 
G01 X-17.2835 Y16.0993 
G01 X-17.2049 Y16.1780 
G01 X-17.2049 Y16.6183 
G01 X-17.1706 Y16.7010 
G01 X-17.1074 Y16.7642 
G01 X-17.0247 Y16.7985 
G01 X-16.4473 Y16.7985 
G01 X-16.4134 Y16.8125 
G01 X-16.2250 Y16.8500 
G01 X-16.0330 Y16.8500 
G01 X-15.8446 Y16.8125 
G01 X-15.8107 Y16.7985 
G01 X-15.2333 Y16.7985 
G01 X-15.1506 Y16.7642 
G01 X-15.0874 Y16.7010 
G01 X-15.0531 Y16.6183 
G01 X-15.0531 Y15.1317 
G01 X-15.0874 Y15.0490 
G01 X-15.1506 Y14.9858 
G01 X-15.2333 Y14.9515 
G01 X-15.6516 Y14.9515 
G01 X-15.6370 Y14.9163 
G01 X-15.6370 Y13.0237 
G01 X-15.6713 Y12.9410 
G01 X-15.7345 Y12.8778 
G01 X-15.8172 Y12.8435 
G01 X-17.5068 Y12.8435 
G01 X-17.5894 Y12.8778 
G01 X-17.6527 Y12.9410 
G01 X-17.6751 Y12.9950 
G01 X-19.9161 Y12.9950 
G01 X-20.1590 Y12.7521 
G01 X-20.1590 Y12.0077 
G01 X-20.1933 Y11.9250 
G01 X-20.2565 Y11.8618 
G01 X-20.3392 Y11.8275 
G01 X-22.0288 Y11.8275 
G01 X-22.1115 Y11.8618 
G01 X-22.1747 Y11.9250 
G01 X-22.2090 Y12.0077 
G01 X-22.2090 Y13.6815 
G01 X-22.4857 Y13.6815 
G00 Z2.5400 
G00 X-25.0154 Y9.2567 
G01 Z-0.3000 F100.00 
G01 X-24.4967 Y9.7754 F254.00 
G01 X-23.7633 Y9.7754 
G01 X-23.6029 Y9.6150 
G01 X-23.5492 Y9.6150 
G01 X-23.5175 Y9.6467 
G01 X-23.4348 Y9.6810 
G01 X-21.9452 Y9.6810 
G01 X-21.8625 Y9.6467 
G01 X-21.7993 Y9.5835 
G01 X-21.7650 Y9.5008 
G01 X-21.7650 Y8.4112 
G01 X-21.7993 Y8.3285 
G01 X-21.8625 Y8.2653 
G01 X-21.9452 Y8.2310 
G01 X-22.4525 Y8.2310 
G01 X-22.5445 Y8.1929 
G01 X-22.6846 Y8.1650 
G01 X-23.1550 Y8.1650 
G01 X-23.1550 Y4.8650 
G01 X-22.5242 Y4.8650 
G01 X-22.4695 Y4.9197 
G01 X-22.2976 Y5.0446 
G01 X-22.1082 Y5.1411 
G01 X-21.9061 Y5.2068 
G01 X-21.6962 Y5.2400 
G01 X-21.4838 Y5.2400 
G01 X-21.2739 Y5.2068 
G01 X-21.0718 Y5.1411 
G01 X-20.8824 Y5.0446 
G01 X-20.7105 Y4.9197 
G01 X-20.6558 Y4.8650 
G01 X-5.4159 Y4.8650 
G01 X-4.5659 Y5.7150 
G01 X-3.0541 Y5.7150 
G01 X-1.9850 Y4.6459 
G01 X-1.9850 Y3.1341 
G01 X-3.0541 Y2.0650 
G01 X-4.5659 Y2.0650 
G01 X-5.4159 Y2.9150 
G01 X-7.3950 Y2.9150 
G01 X-7.3950 Y2.8127 
G01 X-7.4293 Y2.7300 
G01 X-7.4925 Y2.6668 
G01 X-7.5752 Y2.6325 
G01 X-8.4221 Y2.6325 
G01 X-8.4282 Y2.6285 
G01 X-8.6056 Y2.5550 
G01 X-8.7940 Y2.5175 
G01 X-8.9860 Y2.5175 
G01 X-9.1744 Y2.5550 
G01 X-9.3518 Y2.6285 
G01 X-9.3579 Y2.6325 
G01 X-10.2048 Y2.6325 
G01 X-10.2874 Y2.6668 
G01 X-10.3507 Y2.7300 
G01 X-10.3850 Y2.8127 
G01 X-10.3850 Y2.9150 
G01 X-20.6558 Y2.9150 
G01 X-20.7105 Y2.8603 
G01 X-20.8824 Y2.7354 
G01 X-21.0718 Y2.6389 
G01 X-21.2739 Y2.5732 
G01 X-21.4838 Y2.5400 
G01 X-21.6962 Y2.5400 
G01 X-21.9061 Y2.5732 
G01 X-22.1082 Y2.6389 
G01 X-22.2976 Y2.7354 
G01 X-22.4695 Y2.8603 
G01 X-22.5242 Y2.9150 
G01 X-25.5435 Y2.9150 
G01 X-25.5435 Y2.8132 
G01 X-25.5778 Y2.7305 
G01 X-25.6410 Y2.6673 
G01 X-25.7237 Y2.6330 
G01 X-27.6163 Y2.6330 
G01 X-27.6989 Y2.6673 
G01 X-27.7622 Y2.7305 
G01 X-27.7965 Y2.8132 
G01 X-27.7965 Y2.9150 
G01 X-28.0835 Y2.9150 
G01 X-28.0835 Y2.8132 
G01 X-28.1178 Y2.7305 
G01 X-28.1810 Y2.6673 
G01 X-28.2637 Y2.6330 
G01 X-30.1563 Y2.6330 
G01 X-30.2390 Y2.6673 
G01 X-30.3022 Y2.7305 
G01 X-30.3365 Y2.8132 
G01 X-30.3365 Y2.9150 
G01 X-31.8460 Y2.9150 
G01 X-32.0344 Y2.9525 
G01 X-32.2118 Y3.0260 
G01 X-32.3715 Y3.1327 
G01 X-32.5073 Y3.2685 
G01 X-32.6140 Y3.4282 
G01 X-32.6875 Y3.6056 
G01 X-32.7250 Y3.7940 
G01 X-32.7250 Y19.8453 
G01 X-32.7751 Y19.8954 
G01 X-32.7751 Y20.7446 
G01 X-32.7250 Y20.7947 
G01 X-32.7250 Y22.9560 
G01 X-32.6875 Y23.1444 
G01 X-32.6140 Y23.3218 
G01 X-32.5073 Y23.4815 
G01 X-32.3715 Y23.6173 
G01 X-31.6570 Y24.3319 
G01 X-31.6570 Y25.0763 
G01 X-31.6227 Y25.1590 
G01 X-31.5595 Y25.2222 
G01 X-31.4768 Y25.2565 
G01 X-29.7872 Y25.2565 
G01 X-29.7045 Y25.2222 
G01 X-29.6413 Y25.1590 
G01 X-29.6070 Y25.0763 
G01 X-29.6070 Y23.1837 
G01 X-29.6413 Y23.1010 
G01 X-29.7045 Y23.0378 
G01 X-29.7872 Y23.0035 
G01 X-30.2276 Y23.0035 
G01 X-30.7750 Y22.4561 
G01 X-30.7750 Y20.7947 
G01 X-30.7249 Y20.7446 
G01 X-30.7249 Y19.8954 
G01 X-30.7750 Y19.8453 
G01 X-30.7750 Y4.8650 
G01 X-25.1050 Y4.8650 
G01 X-25.1050 Y8.8590 
G01 X-25.0675 Y9.0474 
G01 X-25.0154 Y9.1733 
G01 X-25.0154 Y9.2567 
G00 Z2.5400 
G00 X-23.2000 Y20.0250 
G01 Z-0.3000 F100.00 
G01 X-23.2000 Y23.0050 F254.00 
G01 X-23.5748 Y23.0050 
G01 X-23.6575 Y23.0393 
G01 X-23.7207 Y23.1025 
G01 X-23.7550 Y23.1852 
G01 X-23.7550 Y25.0748 
G01 X-23.7207 Y25.1575 
G01 X-23.6575 Y25.2207 
G01 X-23.5748 Y25.2550 
G01 X-21.8852 Y25.2550 
G01 X-21.8025 Y25.2207 
G01 X-21.7393 Y25.1575 
G01 X-21.7050 Y25.0748 
G01 X-21.7050 Y24.9530 
G01 X-21.6187 Y24.9530 
G01 X-21.6029 Y24.9687 
G01 X-21.5203 Y25.0030 
G01 X-19.6277 Y25.0030 
G01 X-19.5450 Y24.9687 
G01 X-19.4818 Y24.9055 
G01 X-19.4475 Y24.8228 
G01 X-19.4475 Y23.1332 
G01 X-19.4818 Y23.0505 
G01 X-19.5450 Y22.9873 
G01 X-19.6277 Y22.9530 
G01 X-21.2500 Y22.9530 
G01 X-21.2500 Y19.7714 
G01 X-21.1502 Y19.6715 
G01 X-21.1346 Y19.6560 
G01 X-20.6943 Y19.6560 
G01 X-20.6116 Y19.6217 
G01 X-20.5484 Y19.5585 
G01 X-20.5141 Y19.4758 
G01 X-20.5141 Y17.9892 
G01 X-20.5484 Y17.9065 
G01 X-20.6116 Y17.8433 
G01 X-20.6943 Y17.8090 
G01 X-21.2717 Y17.8090 
G01 X-21.3056 Y17.7950 
G01 X-21.4940 Y17.7575 
G01 X-21.6860 Y17.7575 
G01 X-21.8744 Y17.7950 
G01 X-21.9083 Y17.8090 
G01 X-22.4857 Y17.8090 
G01 X-22.5684 Y17.8433 
G01 X-22.6316 Y17.9065 
G01 X-22.6659 Y17.9892 
G01 X-22.6659 Y18.0945 
G01 X-22.7640 Y18.0750 
G01 X-23.8051 Y18.0750 
G01 X-23.8310 Y18.0643 
G01 X-24.0290 Y18.0249 
G01 X-24.2310 Y18.0249 
G01 X-24.4290 Y18.0643 
G01 X-24.6156 Y18.1416 
G01 X-24.7835 Y18.2538 
G01 X-24.8568 Y18.3271 
G01 X-24.9112 Y18.3045 
G01 X-26.6008 Y18.3045 
G01 X-26.6835 Y18.3388 
G01 X-26.7467 Y18.4020 
G01 X-26.7810 Y18.4847 
G01 X-26.7810 Y20.3773 
G01 X-26.7467 Y20.4600 
G01 X-26.6835 Y20.5232 
G01 X-26.6008 Y20.5575 
G01 X-24.9112 Y20.5575 
G01 X-24.8285 Y20.5232 
G01 X-24.7653 Y20.4600 
G01 X-24.7429 Y20.4060 
G01 X-24.4150 Y20.4060 
G01 X-24.2266 Y20.3685 
G01 X-24.0492 Y20.2950 
G01 X-23.8895 Y20.1883 
G01 X-23.7537 Y20.0525 
G01 X-23.7261 Y20.0250 
G01 X-23.2000 Y20.0250 
G00 Z2.5400 
G00 X-26.5207 Y25.1575 
G01 Z-0.3000 F100.00 
G01 X-26.4575 Y25.2207 F254.00 
G01 X-26.3748 Y25.2550 
G01 X-24.6852 Y25.2550 
G01 X-24.6025 Y25.2207 
G01 X-24.5393 Y25.1575 
G01 X-24.5050 Y25.0748 
G01 X-24.5050 Y23.1852 
G01 X-24.5143 Y23.1627 
G01 X-24.1445 Y22.7929 
G01 X-23.7042 Y22.7929 
G01 X-23.6215 Y22.7586 
G01 X-23.5583 Y22.6954 
G01 X-23.5240 Y22.6127 
G01 X-23.5240 Y22.0353 
G01 X-23.5100 Y22.0014 
G01 X-23.4725 Y21.8130 
G01 X-23.4725 Y21.6210 
G01 X-23.5100 Y21.4326 
G01 X-23.5240 Y21.3987 
G01 X-23.5240 Y20.8213 
G01 X-23.5583 Y20.7386 
G01 X-23.6215 Y20.6754 
G01 X-23.7042 Y20.6411 
G01 X-25.1908 Y20.6411 
G01 X-25.2735 Y20.6754 
G01 X-25.3367 Y20.7386 
G01 X-25.3710 Y20.8213 
G01 X-25.3710 Y21.2616 
G01 X-26.1515 Y22.0422 
G01 X-26.2873 Y22.1780 
G01 X-26.3940 Y22.3377 
G01 X-26.4675 Y22.5151 
G01 X-26.5050 Y22.7035 
G01 X-26.5050 Y23.0868 
G01 X-26.5207 Y23.1025 
G01 X-26.5425 Y23.1550 
G01 X-26.7749 Y23.1550 
G01 X-26.7973 Y23.1010 
G01 X-26.8605 Y23.0378 
G01 X-26.9432 Y23.0035 
G01 X-28.6328 Y23.0035 
G01 X-28.7155 Y23.0378 
G01 X-28.7787 Y23.1010 
G01 X-28.8130 Y23.1837 
G01 X-28.8130 Y25.0763 
G01 X-28.7787 Y25.1590 
G01 X-28.7155 Y25.2222 
G01 X-28.6328 Y25.2565 
G01 X-26.9432 Y25.2565 
G01 X-26.8605 Y25.2222 
G01 X-26.7973 Y25.1590 
G01 X-26.7749 Y25.1050 
G01 X-26.5425 Y25.1050 
G01 X-26.5207 Y25.1575 
G00 Z2.5400 
G00 X-13.7251 Y24.0290 
G01 Z-0.3000 F100.00 
G01 X-13.7251 Y24.2310 F254.00 
G01 X-13.6857 Y24.4290 
G01 X-13.6084 Y24.6156 
G01 X-13.4962 Y24.7835 
G01 X-13.3535 Y24.9262 
G01 X-13.1856 Y25.0384 
G01 X-12.9990 Y25.1157 
G01 X-12.8010 Y25.1551 
G01 X-12.5990 Y25.1551 
G01 X-12.4010 Y25.1157 
G01 X-12.2144 Y25.0384 
G01 X-12.0866 Y24.9530 
G01 X-11.2047 Y24.9530 
G01 X-11.1890 Y24.9687 
G01 X-11.1063 Y25.0030 
G01 X-9.2137 Y25.0030 
G01 X-9.1310 Y24.9687 
G01 X-9.0678 Y24.9055 
G01 X-9.0335 Y24.8228 
G01 X-9.0335 Y24.6850 
G01 X-8.3450 Y24.6850 
G01 X-8.3450 Y24.7048 
G01 X-8.3107 Y24.7874 
G01 X-8.2475 Y24.8507 
G01 X-8.1648 Y24.8850 
G01 X-7.0752 Y24.8850 
G01 X-6.9925 Y24.8507 
G01 X-6.9293 Y24.7874 
G01 X-6.8950 Y24.7048 
G01 X-6.8950 Y23.2152 
G01 X-6.9293 Y23.1325 
G01 X-6.9925 Y23.0693 
G01 X-7.0752 Y23.0350 
G01 X-8.1648 Y23.0350 
G01 X-8.2475 Y23.0693 
G01 X-8.3107 Y23.1325 
G01 X-8.3450 Y23.2152 
G01 X-8.3450 Y23.2350 
G01 X-9.0335 Y23.2350 
G01 X-9.0335 Y23.1332 
G01 X-9.0678 Y23.0505 
G01 X-9.1310 Y22.9873 
G01 X-9.2137 Y22.9530 
G01 X-11.1063 Y22.9530 
G01 X-11.1890 Y22.9873 
G01 X-11.2047 Y23.0030 
G01 X-12.6440 Y23.0030 
G01 X-12.8324 Y23.0405 
G01 X-13.0098 Y23.1140 
G01 X-13.1469 Y23.2056 
G01 X-13.1856 Y23.2216 
G01 X-13.3535 Y23.3338 
G01 X-13.4962 Y23.4765 
G01 X-13.6084 Y23.6444 
G01 X-13.6857 Y23.8310 
G01 X-13.7251 Y24.0290 
G00 Z2.5400 
G00 X-15.6646 Y25.1551 
G01 Z-0.3000 F100.00 
G01 X-14.8154 Y25.1551 F254.00 
G01 X-14.2149 Y24.5546 
G01 X-14.2149 Y23.7054 
G01 X-14.8154 Y23.1049 
G01 X-14.9520 Y23.1049 
G01 X-15.1076 Y23.0405 
G01 X-15.2960 Y23.0030 
G01 X-16.7353 Y23.0030 
G01 X-16.7510 Y22.9873 
G01 X-16.8050 Y22.9649 
G01 X-16.8050 Y22.7640 
G01 X-16.8425 Y22.5756 
G01 X-16.9160 Y22.3982 
G01 X-17.0227 Y22.2385 
G01 X-17.0851 Y22.1760 
G01 X-17.0851 Y21.4817 
G01 X-17.1194 Y21.3990 
G01 X-17.1826 Y21.3358 
G01 X-17.2653 Y21.3015 
G01 X-17.9596 Y21.3015 
G01 X-18.2507 Y21.0105 
G01 X-18.4104 Y20.9038 
G01 X-18.5878 Y20.8303 
G01 X-18.7762 Y20.7928 
G01 X-18.9682 Y20.7928 
G01 X-19.1566 Y20.8303 
G01 X-19.3056 Y20.8920 
G01 X-19.3965 Y20.8920 
G01 X-19.3965 Y20.8213 
G01 X-19.4308 Y20.7386 
G01 X-19.4940 Y20.6754 
G01 X-19.5767 Y20.6411 
G01 X-21.0633 Y20.6411 
G01 X-21.1460 Y20.6754 
G01 X-21.2092 Y20.7386 
G01 X-21.2435 Y20.8213 
G01 X-21.2435 Y22.6127 
G01 X-21.2092 Y22.6954 
G01 X-21.1460 Y22.7586 
G01 X-21.0633 Y22.7929 
G01 X-19.5767 Y22.7929 
G01 X-19.4940 Y22.7586 
G01 X-19.4308 Y22.6954 
G01 X-19.3993 Y22.6195 
G01 X-19.2369 Y22.7820 
G01 X-19.2369 Y22.9683 
G01 X-19.2026 Y23.0510 
G01 X-19.1394 Y23.1142 
G01 X-19.0567 Y23.1485 
G01 X-18.9065 Y23.1485 
G01 X-18.9065 Y24.8228 
G01 X-18.8722 Y24.9055 
G01 X-18.8089 Y24.9687 
G01 X-18.7263 Y25.0030 
G01 X-16.8337 Y25.0030 
G01 X-16.7510 Y24.9687 
G01 X-16.7353 Y24.9530 
G01 X-15.8667 Y24.9530 
G01 X-15.6646 Y25.1551 
G00 Z2.5400 
G00 X-28.2637 Y11.7000 
G01 Z-0.3000 F100.00 
G01 X-30.1563 Y11.7000 F254.00 
G01 X-30.2390 Y11.7343 
G01 X-30.3022 Y11.7975 
G01 X-30.3365 Y11.8802 
G01 X-30.3365 Y12.5334 
G01 X-30.4045 Y12.6976 
G01 X-30.4420 Y12.8860 
G01 X-30.4420 Y13.4348 
G01 X-30.4577 Y13.4505 
G01 X-30.4920 Y13.5332 
G01 X-30.4920 Y15.4228 
G01 X-30.4577 Y15.5055 
G01 X-30.3945 Y15.5687 
G01 X-30.3118 Y15.6030 
G01 X-29.8690 Y15.6030 
G01 X-29.8690 Y16.7898 
G01 X-29.8347 Y16.8725 
G01 X-29.7715 Y16.9357 
G01 X-29.6888 Y16.9700 
G01 X-28.5992 Y16.9700 
G01 X-28.5165 Y16.9357 
G01 X-28.4533 Y16.8725 
G01 X-28.4190 Y16.7898 
G01 X-28.4190 Y13.7500 
G01 X-28.2637 Y13.7500 
G01 X-28.1810 Y13.7157 
G01 X-28.1178 Y13.6524 
G01 X-28.0835 Y13.5698 
G01 X-28.0835 Y11.8802 
G01 X-28.1178 Y11.7975 
G01 X-28.1810 Y11.7343 
G01 X-28.2637 Y11.7000 
G00 Z2.5400 
G00 X-11.9140 Y18.6948 
G01 Z-0.3000 F100.00 
G01 X-11.9140 Y17.0886 F254.00 
G01 X-11.8360 Y16.9718 
G01 X-11.7625 Y16.7944 
G01 X-11.7250 Y16.6060 
G01 X-11.7250 Y16.4140 
G01 X-11.7625 Y16.2256 
G01 X-11.8360 Y16.0482 
G01 X-11.9427 Y15.8885 
G01 X-12.0785 Y15.7527 
G01 X-12.2382 Y15.6460 
G01 X-12.4156 Y15.5725 
G01 X-12.6040 Y15.5350 
G01 X-12.7960 Y15.5350 
G01 X-12.9844 Y15.5725 
G01 X-13.1618 Y15.6460 
G01 X-13.3215 Y15.7527 
G01 X-13.4573 Y15.8885 
G01 X-13.5640 Y16.0482 
G01 X-13.6375 Y16.2256 
G01 X-13.6750 Y16.4140 
G01 X-13.6750 Y16.6060 
G01 X-13.6375 Y16.7944 
G01 X-13.5640 Y16.9718 
G01 X-13.4573 Y17.1315 
G01 X-13.3640 Y17.2249 
G01 X-13.3640 Y18.6948 
G01 X-13.3297 Y18.7775 
G01 X-13.2665 Y18.8407 
G01 X-13.1838 Y18.8750 
G01 X-12.0942 Y18.8750 
G01 X-12.0115 Y18.8407 
G01 X-11.9483 Y18.7775 
G01 X-11.9140 Y18.6948 
G00 Z2.5400 
G00 X-13.8140 Y18.6948 
G01 Z-0.3000 F100.00 
G01 X-13.8140 Y17.2052 F254.00 
G01 X-13.8483 Y17.1225 
G01 X-13.9115 Y17.0593 
G01 X-13.9942 Y17.0250 
G01 X-15.0838 Y17.0250 
G01 X-15.1665 Y17.0593 
G01 X-15.2297 Y17.1225 
G01 X-15.2640 Y17.2052 
G01 X-15.2640 Y17.2250 
G01 X-17.1659 Y17.2250 
G01 X-17.1826 Y17.2083 
G01 X-17.2653 Y17.1740 
G01 X-19.0567 Y17.1740 
G01 X-19.1394 Y17.2083 
G01 X-19.2026 Y17.2715 
G01 X-19.2369 Y17.3542 
G01 X-19.2369 Y18.8408 
G01 X-19.2026 Y18.9235 
G01 X-19.1394 Y18.9867 
G01 X-19.0567 Y19.0210 
G01 X-17.2653 Y19.0210 
G01 X-17.1826 Y18.9867 
G01 X-17.1194 Y18.9235 
G01 X-17.0851 Y18.8408 
G01 X-17.0851 Y18.6750 
G01 X-15.2640 Y18.6750 
G01 X-15.2640 Y18.6948 
G01 X-15.2297 Y18.7775 
G01 X-15.1665 Y18.8407 
G01 X-15.0838 Y18.8750 
G01 X-13.9942 Y18.8750 
G01 X-13.9115 Y18.8407 
G01 X-13.8483 Y18.7775 
G01 X-13.8140 Y18.6948 
G00 Z2.5400 
G00 X-27.4690 Y18.9898 
G01 Z-0.3000 F100.00 
G01 X-27.4690 Y17.5002 F254.00 
G01 X-27.5033 Y17.4175 
G01 X-27.5665 Y17.3543 
G01 X-27.6492 Y17.3200 
G01 X-28.7388 Y17.3200 
G01 X-28.8215 Y17.3543 
G01 X-28.8847 Y17.4175 
G01 X-28.9190 Y17.5002 
G01 X-28.9190 Y17.9447 
G01 X-29.1631 Y18.1888 
G01 X-29.2404 Y18.3045 
G01 X-29.4448 Y18.3045 
G01 X-29.5275 Y18.3388 
G01 X-29.5907 Y18.4020 
G01 X-29.6250 Y18.4847 
G01 X-29.6250 Y20.3773 
G01 X-29.5907 Y20.4600 
G01 X-29.5275 Y20.5232 
G01 X-29.4448 Y20.5575 
G01 X-27.7552 Y20.5575 
G01 X-27.6725 Y20.5232 
G01 X-27.6093 Y20.4600 
G01 X-27.5750 Y20.3773 
G01 X-27.5750 Y19.1392 
G01 X-27.5665 Y19.1357 
G01 X-27.5033 Y19.0724 
G01 X-27.4690 Y18.9898 
G00 Z2.5400 
G00 Z10.0000 
M05
M02
